X:646
T: "Muenchen"
N: Z1327
O: Europa, Mitteleuropa, Deutschland, Oberbayern
R: Zech -, Schalks - Lied
M: 3/4
L: 1/8
K: G
Bc | B3AAF | G2B2
BB | d3cAD | d2z2
Bc | B3AAF | G2G2
GB | e3dcF | G2z2
GB | d2d2d2 | B2G2
GB | d3FF2 | G2z2
Bc | B3AAF | G2B2
B2 | d3AAD | d2z2
Bc | B3AAF | G2B2
GB | e3dcF | G2z2

@@@ Tune index: 10404
